gems/_inc/system.svg

<svg viewBox="0 0 200 40" xmlns="http://www.w3.org/2000/svg"><path d="m64.57 18.75h-5.7l1.14-6.63h-4.29l-1.14 6.63h-5.7l3.3-18.75h5.7l-1.17 6.63h4.29l1.17-6.63h5.7zm9.27 0h-5.7l3.3-18.75h5.7zm11.52 0h-7.98l3.3-18.75h7.98c2.58 0 4.413.457 5.5 1.37 1.093.907 1.64 2.38 1.64 4.42 0 1.04-.12 2.24-.36 3.6-.6 3.36-1.627 5.76-3.08 7.2-1.447 1.44-3.78 2.16-7 2.16zm2.52-13.95h-2.37l-1.59 9.15h2.37c.78 0 1.36-.093 1.74-.28.38-.193.63-.63.75-1.31l1.05-5.97c.02-.12.03-.28.03-.48 0-.46-.16-.76-.48-.9-.32-.14-.82-.21-1.5-.21zm16.83 13.95h-7.98l3.3-18.75h7.98c2.58 0 4.413.457 5.5 1.37 1.093.907 1.64 2.38 1.64 4.42 0 1.04-.12 2.24-.36 3.6-.6 3.36-1.627 5.76-3.08 7.2-1.447 1.44-3.78 2.16-7 2.16zm2.52-13.95h-2.37l-1.59 9.15h2.37c.78 0 1.36-.093 1.74-.28.38-.193.63-.63.75-1.31l1.05-5.97c.02-.12.03-.28.03-.48 0-.46-.16-.76-.48-.9-.32-.14-.82-.21-1.5-.21zm22.26 2.52-.78 4.35h-5.7l-.39 2.28h6.99l-.84 4.8h-12.69l3.3-18.75h12.54l-1.56 4.8h-6.15l-.42 2.52zm18.33 11.43h-5.37l-3.06-6.66c-.08-.14-.12-.337-.12-.59 0-.247.02-.53.06-.85h-.24l-1.41 8.1h-5.7l3.3-18.75h5.37l3.06 6.66c.06.14.09.337.09.59 0 .247-.02.53-.06.85h.24l1.44-8.1h5.7z" fill="#fff"/><path d="m82.57 34.03.15-.81h-1.44l.81-4.59h6.87l-1.77 10.02c-2.44.9-4.89 1.35-7.35 1.35-2.46 0-4.237-.49-5.33-1.47-1.087-.98-1.63-2.49-1.63-4.53 0-.86.14-2.13.42-3.81.6-3.48 1.66-5.99 3.18-7.53 1.52-1.54 4.04-2.31 7.56-2.31.74 0 1.683.08 2.83.24 1.153.16 2 .34 2.54.54l-1.65 4.59c-1.5-.28-2.877-.42-4.13-.42-1.247 0-2.14.1-2.68.3-.54.2-.86.6-.96 1.2l-1.47 8.49h1.89c.68 0 1.183-.073 1.51-.22.333-.153.55-.5.65-1.04zm20.79-5.91-.78 4.35h-5.7l-.39 2.28h6.99l-.84 4.8h-12.69l3.3-18.75h12.54l-1.56 4.8h-6.15l-.42 2.52zm9.84 2.34-1.95 9.09h-5.94l4.38-18.75h7.44l.54 9.54h.21l3.9-9.54h7.44l-2.22 18.75h-5.97l1.26-9.09h-.21l-3.75 9.09h-4.35l-.63-9.09zm16.44 8.76 1.68-4.95c1.68.46 3.22.69 4.62.69 1.4 0 2.53-.06 3.39-.18l.24-1.5-2.49-.24c-1.9-.18-3.247-.61-4.04-1.29-.787-.68-1.18-1.64-1.18-2.88 0-.54.06-1.14.18-1.8.46-2.56 1.293-4.32 2.5-5.28 1.213-.96 3.09-1.44 5.63-1.44 2.54 0 4.78.25 6.72.75l-1.56 4.8c-1.74-.3-3.14-.45-4.2-.45-1.06 0-1.96.05-2.7.15l-.24 1.47 2.01.21c2.04.22 3.49.707 4.35 1.46.86.747 1.29 1.75 1.29 3.01 0 1.28-.28 2.6-.84 3.96-.28.7-.587 1.287-.92 1.76-.327.467-.747.863-1.26 1.19-.507.333-.97.583-1.39.75-.42.173-.95.3-1.59.38-.94.14-2.09.21-3.45.21-2.48 0-4.73-.26-6.75-.78z" fill="#fff"/><path d="m54.735 22-3.896 5.01h5.566l1.669-5.01z" fill="#bdddf4"/><path d="m63.643 22 1.67 5.01h5.567l-3.898-5.01z" fill="#5dadec"/><path d="m65.313 27.01-4.454 11.691 10.021-11.691z" fill="#4289c1"/><path d="m50.839 27.01 10.02 11.691-4.454-11.691z" fill="#8ccaf7"/><path d="m58.075 22-1.67 5.01h8.908l-1.671-5.01z" fill="#8ccaf7"/><path d="m60.859 38.701-4.454-11.691h8.908z" fill="#5dadec"/></svg>

<?xml version="1.0" encoding="utf-8"?>
<svg viewBox="0 0 200 40" xmlns="http://www.w3.org/2000/svg">
  <path d="M 64.57 18.75 L 58.87 18.75 L 60.01 12.12 L 55.72 12.12 L 54.58 18.75 L 48.88 18.75 L 52.18 0 L 57.88 0 L 56.71 6.63 L 61 6.63 L 62.17 0 L 67.87 0 L 64.57 18.75 Z M 73.84 18.75 L 68.14 18.75 L 71.44 0 L 77.14 0 L 73.84 18.75 Z M 85.36 18.75 L 77.38 18.75 L 80.68 0 L 88.66 0 L 88.66 0 C 91.24 0 93.073 0.457 94.16 1.37 L 94.16 1.37 L 94.16 1.37 C 95.253 2.277 95.8 3.75 95.8 5.79 L 95.8 5.79 L 95.8 5.79 C 95.8 6.83 95.68 8.03 95.44 9.39 L 95.44 9.39 L 95.44 9.39 C 94.84 12.75 93.813 15.15 92.36 16.59 L 92.36 16.59 L 92.36 16.59 C 90.913 18.03 88.58 18.75 85.36 18.75 L 85.36 18.75 Z M 87.88 4.8 L 87.88 4.8 L 85.51 4.8 L 83.92 13.95 L 86.29 13.95 L 86.29 13.95 C 87.07 13.95 87.65 13.857 88.03 13.67 L 88.03 13.67 L 88.03 13.67 C 88.41 13.477 88.66 13.04 88.78 12.36 L 88.78 12.36 L 89.83 6.39 L 89.83 6.39 C 89.85 6.27 89.86 6.11 89.86 5.91 L 89.86 5.91 L 89.86 5.91 C 89.86 5.45 89.7 5.15 89.38 5.01 L 89.38 5.01 L 89.38 5.01 C 89.06 4.87 88.56 4.8 87.88 4.8 Z M 104.71 18.75 L 96.73 18.75 L 100.03 0 L 108.01 0 L 108.01 0 C 110.59 0 112.423 0.457 113.51 1.37 L 113.51 1.37 L 113.51 1.37 C 114.603 2.277 115.15 3.75 115.15 5.79 L 115.15 5.79 L 115.15 5.79 C 115.15 6.83 115.03 8.03 114.79 9.39 L 114.79 9.39 L 114.79 9.39 C 114.19 12.75 113.163 15.15 111.71 16.59 L 111.71 16.59 L 111.71 16.59 C 110.263 18.03 107.93 18.75 104.71 18.75 L 104.71 18.75 Z M 107.23 4.8 L 107.23 4.8 L 104.86 4.8 L 103.27 13.95 L 105.64 13.95 L 105.64 13.95 C 106.42 13.95 107 13.857 107.38 13.67 L 107.38 13.67 L 107.38 13.67 C 107.76 13.477 108.01 13.04 108.13 12.36 L 108.13 12.36 L 109.18 6.39 L 109.18 6.39 C 109.2 6.27 109.21 6.11 109.21 5.91 L 109.21 5.91 L 109.21 5.91 C 109.21 5.45 109.05 5.15 108.73 5.01 L 108.73 5.01 L 108.73 5.01 C 108.41 4.87 107.91 4.8 107.23 4.8 Z M 129.49 7.32 L 128.71 11.67 L 123.01 11.67 L 122.62 13.95 L 129.61 13.95 L 128.77 18.75 L 116.08 18.75 L 119.38 0 L 131.92 0 L 130.36 4.8 L 124.21 4.8 L 123.79 7.32 L 129.49 7.32 Z M 147.82 18.75 L 142.45 18.75 L 139.39 12.09 L 139.39 12.09 C 139.31 11.95 139.27 11.753 139.27 11.5 L 139.27 11.5 L 139.27 11.5 C 139.27 11.253 139.29 10.97 139.33 10.65 L 139.33 10.65 L 139.09 10.65 L 137.68 18.75 L 131.98 18.75 L 135.28 0 L 140.65 0 L 143.71 6.66 L 143.71 6.66 C 143.77 6.8 143.8 6.997 143.8 7.25 L 143.8 7.25 L 143.8 7.25 C 143.8 7.497 143.78 7.78 143.74 8.1 L 143.74 8.1 L 143.98 8.1 L 145.42 0 L 151.12 0 L 147.82 18.75 Z" style="white-space: pre; fill: rgb(255, 255, 255);"/>
  <path d="M 82.57 34.03 L 82.57 34.03 L 82.72 33.22 L 81.28 33.22 L 82.09 28.63 L 88.96 28.63 L 87.19 38.65 L 87.19 38.65 C 84.75 39.55 82.3 40 79.84 40 L 79.84 40 L 79.84 40 C 77.38 40 75.603 39.51 74.51 38.53 L 74.51 38.53 L 74.51 38.53 C 73.423 37.55 72.88 36.04 72.88 34 L 72.88 34 L 72.88 34 C 72.88 33.14 73.02 31.87 73.3 30.19 L 73.3 30.19 L 73.3 30.19 C 73.9 26.71 74.96 24.2 76.48 22.66 L 76.48 22.66 L 76.48 22.66 C 78 21.12 80.52 20.35 84.04 20.35 L 84.04 20.35 L 84.04 20.35 C 84.78 20.35 85.723 20.43 86.87 20.59 L 86.87 20.59 L 86.87 20.59 C 88.023 20.75 88.87 20.93 89.41 21.13 L 89.41 21.13 L 87.76 25.72 L 87.76 25.72 C 86.26 25.44 84.883 25.3 83.63 25.3 L 83.63 25.3 L 83.63 25.3 C 82.383 25.3 81.49 25.4 80.95 25.6 L 80.95 25.6 L 80.95 25.6 C 80.41 25.8 80.09 26.2 79.99 26.8 L 79.99 26.8 L 78.52 35.29 L 80.41 35.29 L 80.41 35.29 C 81.09 35.29 81.593 35.217 81.92 35.07 L 81.92 35.07 L 81.92 35.07 C 82.253 34.917 82.47 34.57 82.57 34.03 Z M 103.36 28.12 L 102.58 32.47 L 96.88 32.47 L 96.49 34.75 L 103.48 34.75 L 102.64 39.55 L 89.95 39.55 L 93.25 20.8 L 105.79 20.8 L 104.23 25.6 L 98.08 25.6 L 97.66 28.12 L 103.36 28.12 Z M 113.2 30.46 L 111.25 39.55 L 105.31 39.55 L 109.69 20.8 L 117.13 20.8 L 117.67 30.34 L 117.88 30.34 L 121.78 20.8 L 129.22 20.8 L 127 39.55 L 121.03 39.55 L 122.29 30.46 L 122.08 30.46 L 118.33 39.55 L 113.98 39.55 L 113.35 30.46 L 113.2 30.46 Z M 129.64 39.22 L 129.64 39.22 L 131.32 34.27 L 131.32 34.27 C 133 34.73 134.54 34.96 135.94 34.96 L 135.94 34.96 L 135.94 34.96 C 137.34 34.96 138.47 34.9 139.33 34.78 L 139.33 34.78 L 139.57 33.28 L 137.08 33.04 L 137.08 33.04 C 135.18 32.86 133.833 32.43 133.04 31.75 L 133.04 31.75 L 133.04 31.75 C 132.253 31.07 131.86 30.11 131.86 28.87 L 131.86 28.87 L 131.86 28.87 C 131.86 28.33 131.92 27.73 132.04 27.07 L 132.04 27.07 L 132.04 27.07 C 132.5 24.51 133.333 22.75 134.54 21.79 L 134.54 21.79 L 134.54 21.79 C 135.753 20.83 137.63 20.35 140.17 20.35 L 140.17 20.35 L 140.17 20.35 C 142.71 20.35 144.95 20.6 146.89 21.1 L 146.89 21.1 L 145.33 25.9 L 145.33 25.9 C 143.59 25.6 142.19 25.45 141.13 25.45 L 141.13 25.45 L 141.13 25.45 C 140.07 25.45 139.17 25.5 138.43 25.6 L 138.43 25.6 L 138.19 27.07 L 140.2 27.28 L 140.2 27.28 C 142.24 27.5 143.69 27.987 144.55 28.74 L 144.55 28.74 L 144.55 28.74 C 145.41 29.487 145.84 30.49 145.84 31.75 L 145.84 31.75 L 145.84 31.75 C 145.84 33.03 145.56 34.35 145 35.71 L 145 35.71 L 145 35.71 C 144.72 36.41 144.413 36.997 144.08 37.47 L 144.08 37.47 L 144.08 37.47 C 143.753 37.937 143.333 38.333 142.82 38.66 L 142.82 38.66 L 142.82 38.66 C 142.313 38.993 141.85 39.243 141.43 39.41 L 141.43 39.41 L 141.43 39.41 C 141.01 39.583 140.48 39.71 139.84 39.79 L 139.84 39.79 L 139.84 39.79 C 138.9 39.93 137.75 40 136.39 40 L 136.39 40 L 136.39 40 C 133.91 40 131.66 39.74 129.64 39.22 Z" style="white-space: pre; fill: rgb(255, 255, 255);"/>
  <g transform="matrix(1.249987, 0, 0, -1.249987, 33.860008, 46.040001)" id="g10">
    <g transform="translate(7.0002,33.0003)" id="g12"/>
    <g transform="translate(23.0004,33.0003)" id="g16"/>
    <g transform="translate(26.0001,24.0003)" id="g20"/>
    <g transform="translate(0,24.0003)" id="g24"/>
    <g transform="translate(13,33)" id="g28"/>
    <g transform="translate(18,3)" id="g32"/>
  </g>
  <path id="path14" style="fill: rgb(189, 221, 244); fill-opacity: 1; fill-rule: nonzero; stroke: none;" d="M 54.735 22 L 50.839 27.01 L 56.405 27.01 L 58.074 22 L 54.735 22 Z"/>
  <path id="path18" style="fill: rgb(93, 173, 236); fill-opacity: 1; fill-rule: nonzero; stroke: none;" d="M 63.643 22 L 65.313 27.01 L 70.88 27.01 L 66.982 22 L 63.643 22 Z"/>
  <path id="path22" style="fill: rgb(66, 137, 193); fill-opacity: 1; fill-rule: nonzero; stroke: none;" d="M 65.313 27.01 L 60.859 38.701 L 70.88 27.01 L 65.313 27.01 Z"/>
  <path id="path26" style="fill: rgb(140, 202, 247); fill-opacity: 1; fill-rule: nonzero; stroke: none;" d="M 50.839 27.01 L 60.859 38.701 L 56.405 27.01 L 50.839 27.01 Z"/>
  <path id="path30" style="fill: rgb(140, 202, 247); fill-opacity: 1; fill-rule: nonzero; stroke: none;" d="M 58.075 22 L 56.405 27.01 L 65.313 27.01 L 63.642 22 L 58.075 22 Z"/>
  <path id="path34" style="fill: rgb(93, 173, 236); fill-opacity: 1; fill-rule: nonzero; stroke: none;" d="M 60.859 38.701 L 56.405 27.01 L 65.313 27.01 L 60.859 38.701 Z"/>
</svg>
